assets/icons/destination.svg

<svg width="39" height="37" viewBox="0 0 39 37" fill="none" xmlns="http://www.w3.org/2000/svg">
<path d="M32.29 21.8783C29.0648 20.5626 24.8774 19.7938 20.3996 19.6848V14.658C22.8486 13.6725 24.8875 14.2798 27.423 15.036C29.2817 15.5904 31.3251 16.2 33.7624 16.1999C34.5873 16.1999 35.4577 16.13 36.3808 15.9645C36.7681 15.895 37.0883 15.6304 37.2215 15.2695C37.3548 14.9087 37.281 14.5061 37.0277 14.2124L33.1085 9.66664L37.0382 4.96995C37.331 4.61984 37.3686 4.12911 37.1323 3.74065C36.896 3.3522 36.4361 3.14823 35.9799 3.23011C32.8616 3.78899 30.4262 3.06292 28.0709 2.36054C25.6829 1.64819 23.2253 0.916519 20.3996 1.75664V1.52086C20.3996 0.925927 19.9042 0.443604 19.2932 0.443604C18.6822 0.443604 18.1868 0.925927 18.1868 1.52086V19.6848C13.7091 19.7938 9.52166 20.5626 6.29637 21.8783C2.50122 23.4264 0.411133 25.6003 0.411133 27.9992C0.411133 30.3982 2.50122 32.5721 6.29637 34.1202C9.78608 35.5438 14.4018 36.3277 19.2932 36.3277C24.1846 36.3277 28.8003 35.5437 32.29 34.1202C36.0852 32.5721 38.1753 30.3983 38.1753 27.9992C38.1753 25.6002 36.0852 23.4264 32.29 21.8783ZM20.3997 4.0425C22.8486 3.0571 24.8874 3.66431 27.423 4.42047C29.2582 4.96779 31.2737 5.56897 33.6703 5.58405L30.8152 8.99652C30.4799 9.39733 30.4842 9.97359 30.8257 10.3695L33.9922 14.0424C31.7819 14.0822 29.9019 13.522 28.0711 12.976C25.683 12.2638 23.2254 11.532 20.3997 12.3723V4.0425ZM19.2932 28.6432C19.9042 28.6432 20.3996 28.1609 20.3996 27.566V26.2756C22.2069 26.3408 23.9043 26.5645 25.2661 26.9224C26.8327 27.3342 27.4569 27.7936 27.6149 27.9887C27.4569 28.1837 26.8328 28.6431 25.2661 29.055C23.6293 29.4852 21.508 29.7222 19.2932 29.7222C17.0784 29.7222 14.9571 29.4853 13.3203 29.055C11.7537 28.6432 11.1295 28.1837 10.9715 27.9887C11.1295 27.7936 11.7537 27.3342 13.3203 26.9224C14.6821 26.5645 16.3795 26.3408 18.1868 26.2756V27.566C18.1868 28.1609 18.6822 28.6432 19.2932 28.6432ZM19.2932 34.1733C9.46966 34.1733 2.62388 30.9195 2.62388 27.9993C2.62388 25.1901 8.95977 22.0728 18.1868 21.8398V24.1198C15.9694 24.1938 13.9048 24.4891 12.284 24.9709C11.2991 25.2637 10.5082 25.617 9.93316 26.0211C8.93971 26.7192 8.73119 27.4765 8.73119 27.9887C8.73119 28.5009 8.93971 29.258 9.93316 29.9562C10.5082 30.3603 11.2992 30.7136 12.284 31.0064C14.1718 31.5675 16.6611 31.8766 19.2932 31.8766C21.9253 31.8766 24.4147 31.5676 26.3024 31.0064C27.2873 30.7136 28.0782 30.3603 28.6533 29.9562C29.6467 29.258 29.8552 28.5009 29.8552 27.9887C29.8552 27.4765 29.6467 26.7192 28.6533 26.0211C28.0782 25.617 27.2873 25.2637 26.3024 24.9709C24.6816 24.4891 22.6169 24.1938 20.3996 24.1198V21.8398C29.6266 22.0728 35.9625 25.1901 35.9625 27.9993C35.9625 30.9195 29.1168 34.1733 19.2932 34.1733Z" fill="black"/>
</svg>

<svg width="39" height="37" fill="none" xmlns="http://www.w3.org/2000/svg"><path d="M32.29 21.878c-3.225-1.315-7.413-2.084-11.89-2.193v-5.027c2.449-.986 4.488-.378 7.023.378 1.859.554 3.902 1.164 6.34 1.164.824 0 1.695-.07 2.618-.236.387-.069.707-.334.84-.694.134-.361.06-.764-.193-1.058l-3.92-4.545 3.93-4.697c.293-.35.33-.84.094-1.23a1.117 1.117 0 00-1.152-.51c-3.118.559-5.554-.167-7.91-.87-2.387-.712-4.845-1.443-7.67-.603V1.52c0-.595-.496-1.077-1.107-1.077-.61 0-1.106.482-1.106 1.077v18.164c-4.478.109-8.665.878-11.89 2.193C2.5 23.426.41 25.6.41 28c0 2.4 2.09 4.573 5.885 6.121 3.49 1.424 8.106 2.208 12.997 2.208 4.892 0 9.507-.784 12.997-2.208 3.795-1.548 5.885-3.722 5.885-6.12 0-2.4-2.09-4.574-5.885-6.122zM20.4 4.043c2.449-.986 4.487-.379 7.023.377 1.835.548 3.85 1.149 6.247 1.164l-2.855 3.413c-.335.4-.33.977.01 1.373l3.167 3.672c-2.21.04-4.09-.52-5.92-1.066-2.389-.712-4.847-1.444-7.672-.604v-8.33zm-1.107 24.6c.611 0 1.107-.482 1.107-1.077v-1.29c1.807.065 3.504.288 4.866.646 1.567.412 2.19.872 2.349 1.067-.158.195-.782.654-2.349 1.066-1.637.43-3.758.667-5.973.667s-4.336-.237-5.973-.667c-1.566-.412-2.19-.871-2.348-1.066.158-.195.782-.655 2.348-1.067 1.362-.358 3.06-.581 4.867-.646v1.29c0 .595.495 1.077 1.106 1.077zm0 5.53c-9.823 0-16.67-3.254-16.67-6.174 0-2.809 6.337-5.926 15.564-6.16v2.28c-2.218.075-4.282.37-5.903.852-.985.293-1.776.646-2.35 1.05-.994.698-1.203 1.456-1.203 1.968s.209 1.269 1.202 1.967c.575.404 1.366.758 2.351 1.05 1.888.561 4.377.87 7.01.87 2.631 0 5.12-.308 7.008-.87.985-.292 1.776-.646 2.351-1.05.994-.698 1.202-1.455 1.202-1.967s-.208-1.27-1.202-1.968c-.575-.404-1.366-.757-2.35-1.05-1.621-.482-3.686-.777-5.903-.851v-2.28c9.227.233 15.563 3.35 15.563 6.16 0 2.92-6.846 6.173-16.67 6.173z" fill="#000"/></svg>
